X:586
T: "Ringelreigen"
N: Z1266
O: Europa, Mitteleuropa, Deutschland
R: Natur und Welt
M: 6/8
L: 1/8
K: F
F | F2FA2A | c3c2
c | c2cd2d | c3A2
F | F2FA2A | c3c2
c | c2cd2d | c3e2
e | f2fe2d | c3A2
A | c2cd2d | c3B2
B | A2AG2G | F2z3

